X:1
T:Title
%%score 1 { 2 | 3 }
L:1/8
Q:1/4=77
M:4/4
K:Ab
V:1 treble nm="Grand Piano, Soprano"
V:2 bass nm="Choir Pad, Fitchburg, 76.76.76 D"
V:3 bass 
V:1
 [CE][CA]- [CA]/[CA]/[DB]- [DB]/[CA]/[EG] [DF][CE] | [CE][DF]- [DF]/[FA]/[FA]- [FA]/[FB]/ [EA]3 | %2
w: By~Alonzo~Judson~Abbey,~1881 * * * * * * * * *||
 [CA][Ec]- [Ec]/[Ec]/[Fd]- [Fd]/[Ec]/[Ec]- [Ec]/[DB]/[CA] | %3
w: |
 [CA][EB]- [EB]/[Ac]/[GB]- [GB]/[FA]/ [GB]3 | [GB][GB]- [GB]/[GB]/[Ge]- [Ge]/[Gd]/ [Ad]2 [Ac] | %5
w: ||
 [Ec][Ec]- [Ec]/[Ec]/[=Ec]- [Ec]/[EB]/ [FA]3 | [=EG]F- F/[FA]/[_EG]- [EG]/[DF]/[DF] [CE]2 | %7
w: ||
 [CA][B,G]- [B,G]/[CA]/[DB]- [DB]/[Ec]/ [CA]3 | [GB][GB]/[GB]/- [GB][Ge]- [Ge]/[Gd]/ [Ac]2 [Ae] | %9
w: ||
 [Ac][GB]- [GB]/[Ge]/[F=d]- [Fd]/[Af]/ [Ge]3 | %10
w: |
 [Ge][Ge]- [Ge]/[Gd]/[Gd]- [Gd]/[Ge]/[Ac]- [Ac]/B/[EA] | %11
w: |
 [Ec][DB]- [DB]/[DE]/[DB]- [DB]/[Ec]/ [CA]3- | [CA]4 z4 |] %13
w: ||
V:2
 A,A,- A,/A,/A,- A,/A,/ A,2 A, | A,A,- A,/[K:treble]D/D- D/D/ C3 | A,A,- A,/A,/A,- A,/A,/ A,2 A, | %3
 A,G,- G,/A,/B,- B,/[K:treble]C/ E3 | EE- E/E/E- E/E/ E2 E | C[K:bass]A,- A,/A,/G,- G,/C/ C3 | %6
 B,A,- A,/A,/A,- A,/A,/A, A,2 | E,E,- E,/A,/G,- G,/G,/ A,3 | EE/E/- EB,- B,/E/ E2 C | %9
 EE- E/[K:bass]B,/B,- B,/B,/ B,3 | B,B,- B,/B,/[K:treble]E- E/E/E- E/D/C | %11
 A,G,- G,/G,/G,- G,/G,/ A,3- | A,4 z4 |] %13
V:3
 A,,A,,- A,,/A,,/A,,- A,,/A,,/ A,,2 A,, | A,,D,- D,/D,/D,- D,/D,/ A,,3 | z8 | %3
 F,E,- E,/E,/E,- E,/E,/ E,3 | E,E,- E,/E,/E,- E,/E,/ A,2 A, | A,,A,,- A,,/A,,/C,- C,/C,/ F,3 | %6
 C,D,- D,/D,/D,- D,/D,/A,, A,,2 | .A,,2 z/ E,/E,- E,/E,/ A,,3 | E,E,/E,/- E,E,- E,/E,/ A,2 A, | %9
 A, B,2 B,,- B,,/B,,/ E,3 | E,E,- E,/E,/E,- E,/E,/ A,2 A, | z E,- E,/E,/E,- E,/E,/ A,,3- | %12
 A,,4 z4 |] %13

